X: 6748
T: Chancellor, The
R: hornpipe
M: 4/4
K: Gmajor
GE|D3E ~G2EG|ABcA BG~G2|ABcd eBdB|ABAG EAGE|
DB,DE ~G2(3(EFG)|ABce gfgd|~B2GB ADFA|GBAF G2:|
ef|gfed ~e2de|gedB d3B|cBcd gedB|ABAG EAGE|
DB,DE ~G2(3(EFG)|ABce gfgd|~B2GB ADFA|GBAF G2:|

